X: 0
T:II Here We Come a Wassailing (159)
M:6/8
L:1/8
C:Traditional
S:New Oxford Book of Carols #159 II
K:D
D|D2EF2E|(D2E)F2E|(D2A)A2A|
(A3A2)A|(B2B)A2F|(A2A)G2F|(E2D)(E2F)||
M:2/4
||G4F2G2|A4d2B2|A4F2G2|A2A2d2B2|
A4F2G2|A4B2F2|G2E2D2C2|D3EF2D2|
G4F2G2|A4B2F2|G2E2D2C2|D8||
Play Midi sound file click here
To return to the top click here
-----------------------------------------------------------------------------
